X:13
T:Quand mon pre m'a marie
R:Branle
A:Normandie
O:France
M:2/4
L:1/8
Q:1/4=96
K:Bb
 FF|B>B BB|BB "^"c2| BA G2-|G2 "," FF|B>B BB|BB "^"c2|!
BA G2-|G2 "," GG|cG GA| GF F/2F/2F/2F/2|F/2F/2=E/2F/2 GA|!
G3/2"," G/2 Gc|G>G Gc| G2 BB/2B/2|AA G/2F/2G/2A/2|F2 ||
